flags/ca-bc.svg

<svg xmlns="http://www.w3.org/2000/svg" width="512" height="512" fill="none"><path fill="var(--flag-palette-white, #eeeeee)" d="M0 0h512v512H0z"/><path fill="var(--flag-palette-blue, #0052b4)" d="M0 269.1v34.3h.1c21.3 0 21.3 19.5 42.6 19.5s21.4-19.5 42.7-19.5 21.3 19.5 42.7 19.5 21.3-19.5 42.6-19.5 21.4 19.5 42.7 19.5 21.3-19.5 42.7-19.5 21.4 19.5 42.7 19.5 21.3-19.5 42.7-19.5c21.3 0 21.3 19.5 42.6 19.5s21.4-19.5 42.7-19.5 21.3 19.5 42.7 19.5 21.3-19.4 42.5-19.5v-34.3c-21.2 0-21.2 19.5-42.5 19.5s-21.4-19.5-42.7-19.5-21.3 19.5-42.7 19.5c-21.3 0-21.3-19.5-42.6-19.5s-21.4 19.5-42.7 19.5-21.3-19.5-42.7-19.5-21.4 19.5-42.7 19.5-21.3-19.5-42.7-19.5c-21.3 0-21.3 19.5-42.6 19.5s-21.4-19.5-42.7-19.5-21.3 19.5-42.7 19.5c-21.3 0-21.3-19.5-42.6-19.5zm0 66.6V370h.1c21.4 0 21.4 19.5 42.7 19.5S64.1 370 85.5 370c21.3 0 21.3 19.5 42.6 19.5s21.4-19.5 42.7-19.5 21.3 19.5 42.7 19.5 21.3-19.5 42.6-19.5 21.4 19.5 42.7 19.5 21.3-19.5 42.7-19.5 21.4 19.5 42.7 19.5 21.3-19.5 42.7-19.5c21.3 0 21.3 19.5 42.6 19.5s21.4-19.4 42.5-19.5v-34.3c-21.1.1-21.2 19.5-42.5 19.5s-21.3-19.5-42.6-19.5-21.4 19.5-42.7 19.5-21.3-19.5-42.7-19.5-21.4 19.5-42.7 19.5-21.3-19.5-42.7-19.5c-21.3 0-21.3 19.5-42.6 19.5s-21.4-19.5-42.7-19.5-21.3 19.5-42.7 19.5c-21.3 0-21.3-19.5-42.6-19.5s-21.4 19.5-42.7 19.5S21.5 335.7.1 335.7zm0 67.1V512h92.6l168.1-21.3L419.4 512H512V402.8c-21.2 0-21.2 19.5-42.5 19.5s-21.4-19.5-42.7-19.5-21.3 19.5-42.7 19.5c-21.3 0-21.3-19.5-42.6-19.5s-21.4 19.5-42.7 19.5-21.3-19.5-42.7-19.5-21.4 19.5-42.7 19.5-21.3-19.5-42.7-19.5c-21.3 0-21.3 19.5-42.6 19.5s-21.4-19.5-42.7-19.5-21.3 19.5-42.7 19.5c-21.3 0-21.3-19.5-42.6-19.5z"/><path fill="var(--flag-palette-dark-yellow, #ffc635)" d="m201.9 345-10 78.7-77.8-14.9 37.7 68.7Q120 491 92.6 512h326.8q-27.3-21-59-34.5l37.7-68.7-77.9 15-9.9-78.8-54.2 58z"/><g clip-path="url(#a)"><path fill="var(--flag-palette-blue, #0052b4)" d="M0-128h512v512H0z"/><path fill="var(--flag-palette-white, #eeeeee)" d="M464 384h48v-48L304 128 512-80v-48h-48L256 80 48-128H0v48l208 208L0 336v48h48l208-208z"/><path fill="var(--flag-palette-white, #eeeeee)" d="M512 192V64H320v-192H192V64H0v128h192v192h128V192z"/><path fill="var(--flag-palette-bright-red, #d80027)" d="M512 160V96H288v-224h-64V96H0v64h224v224h64V160z"/><path fill="var(--flag-palette-bright-red, #d80027)" d="M0-96v-32L192 64h-32zm512 448v32L320 192h32zM32 384H0l192-192v32zm448-512h32L320 64V32z"/><path fill="var(--flag-palette-dark-yellow, #ffc635)" fill-rule="evenodd" d="M181 88v80h150V88h-37.5H331l-18.7 43.3L293.5 88l-18.7 43.3L256 88l-18.7 43.3L218.5 88l-18.7 43.3zm99.1 0H256zm-37.5 0h-24.1z" clip-rule="evenodd"/></g><defs><clipPath id="a"><path fill="#fff" d="M0 0h512v256H0z"/></clipPath></defs></svg>

<svg width="512" height="512" viewBox="0 0 512 512" fill="none" xmlns="http://www.w3.org/2000/svg">
<rect width="512" height="512" fill="var(--flag-palette-white, #eeeeee)"/>
<path d="M0 269.1V303.4H0.1C21.4 303.4 21.4 322.9 42.7 322.9C64.1 322.9 64.1 303.4 85.4 303.4C106.7 303.4 106.7 322.9 128.1 322.9C149.5 322.9 149.4 303.4 170.7 303.4C192.1 303.4 192.1 322.9 213.4 322.9C234.7 322.9 234.7 303.4 256.1 303.4C277.5 303.4 277.5 322.9 298.8 322.9C320.1 322.9 320.1 303.4 341.5 303.4C362.8 303.4 362.8 322.9 384.1 322.9C405.5 322.9 405.5 303.4 426.8 303.4C448.1 303.4 448.1 322.9 469.5 322.9C490.9 322.9 490.8 303.5 512 303.4V269.1C490.8 269.1 490.8 288.6 469.5 288.6C448.2 288.6 448.1 269.1 426.8 269.1C405.5 269.1 405.5 288.6 384.1 288.6C362.8 288.6 362.8 269.1 341.5 269.1C320.1 269.1 320.1 288.6 298.8 288.6C277.5 288.6 277.5 269.1 256.1 269.1C234.7 269.1 234.7 288.6 213.4 288.6C192.1 288.6 192.1 269.1 170.7 269.1C149.4 269.1 149.4 288.6 128.1 288.6C106.8 288.6 106.7 269.1 85.4 269.1C64.1 269.1 64.1 288.6 42.7 288.6C21.4 288.6 21.4 269.1 0.1 269.1H0ZM0 335.7V370H0.1C21.5 370 21.5 389.5 42.8 389.5C64.1 389.5 64.1 370 85.5 370C106.8 370 106.8 389.5 128.1 389.5C149.5 389.5 149.5 370 170.8 370C192.1 370 192.1 389.5 213.5 389.5C234.9 389.5 234.8 370 256.1 370C277.5 370 277.5 389.5 298.8 389.5C320.1 389.5 320.1 370 341.5 370C362.9 370 362.9 389.5 384.2 389.5C405.5 389.5 405.5 370 426.9 370C448.2 370 448.2 389.5 469.5 389.5C490.8 389.5 490.9 370.1 512 370V335.7C490.9 335.8 490.8 355.2 469.5 355.2C448.2 355.2 448.2 335.7 426.9 335.7C405.5 335.7 405.5 355.2 384.2 355.2C362.9 355.2 362.9 335.7 341.5 335.7C320.1 335.7 320.1 355.2 298.8 355.2C277.5 355.2 277.5 335.7 256.1 335.7C234.8 335.7 234.8 355.2 213.5 355.2C192.2 355.2 192.1 335.7 170.8 335.7C149.5 335.7 149.5 355.2 128.1 355.2C106.8 355.2 106.8 335.7 85.5 335.7C64.1 335.7 64.1 355.2 42.8 355.2C21.5 355.2 21.5 335.7 0.1 335.7H0ZM0 402.8V512H92.6L260.7 490.7L419.4 512H512V402.8C490.8 402.8 490.8 422.3 469.5 422.3C448.2 422.3 448.1 402.8 426.8 402.8C405.5 402.8 405.5 422.3 384.1 422.3C362.8 422.3 362.8 402.8 341.5 402.8C320.1 402.8 320.1 422.3 298.8 422.3C277.5 422.3 277.5 402.8 256.1 402.8C234.7 402.8 234.7 422.3 213.4 422.3C192.1 422.3 192.1 402.8 170.7 402.8C149.4 402.8 149.4 422.3 128.1 422.3C106.8 422.3 106.7 402.8 85.4 402.8C64.1 402.8 64.1 422.3 42.7 422.3C21.4 422.3 21.4 402.8 0.1 402.8H0Z" fill="var(--flag-palette-blue, #0052b4)"/>
<path d="M201.902 345L191.902 423.7L114.102 408.8L151.802 477.5C130.674 486.422 110.779 498.016 92.6016 512H419.402C401.287 498.031 381.459 486.437 360.402 477.5L398.102 408.8L320.202 423.8L310.302 345L256.102 403L201.902 345Z" fill="var(--flag-palette-dark-yellow, #ffc635)"/>
<g clip-path="url(#clip0_46_27873)">
<rect y="-128" width="512" height="512" fill="var(--flag-palette-blue, #0052b4)"/>
<path d="M464 384H512V336L304 128L512 -80V-128H464L256 80L48 -128H0V-80L208 128L0 336V384H48L256 176L464 384Z" fill="var(--flag-palette-white, #eeeeee)"/>
<path d="M512 192V64H320V-128H192V64H0V192H192V384H320V192H512Z" fill="var(--flag-palette-white, #eeeeee)"/>
<path d="M512 160V96H288V-128H224V96H0V160H224V384H288V160H512Z" fill="var(--flag-palette-bright-red, #d80027)"/>
<path d="M0 -96V-128L192 64H160L0 -96Z" fill="var(--flag-palette-bright-red, #d80027)"/>
<path d="M512 352L512 384L320 192L352 192L512 352Z" fill="var(--flag-palette-bright-red, #d80027)"/>
<path d="M32 384L0 384L192 192L192 224L32 384Z" fill="var(--flag-palette-bright-red, #d80027)"/>
<path d="M480 -128L512 -128L320 64L320 32L480 -128Z" fill="var(--flag-palette-bright-red, #d80027)"/>
<path fill-rule="evenodd" clip-rule="evenodd" d="M181 88.0013V168H331V88H293.5L293.5 88H331L312.25 131.275L293.5 88.0005L274.75 131.275L256 88.0005L237.25 131.275L218.5 88.0005L199.75 131.275L181 88.0013ZM280.101 88H256L256 88L280.101 88ZM242.601 88L218.5 88L218.5 88H242.601Z" fill="var(--flag-palette-dark-yellow, #ffc635)"/>
</g>
<defs>
<clipPath id="clip0_46_27873">
<rect width="512" height="256" fill="white"/>
</clipPath>
</defs>
</svg>
